icons/shield40_us_ok_3.svg

<svg width="25" height="20" version="1.0" xmlns="http://www.w3.org/2000/svg">
 <rect style="fill:#fff;fill-rule:evenodd;stroke:#000" width="24" height="19" x=".5" y=".5" rx="1.5" ry="1.5"/>
 <path d="m 253.215,406.82699 c 0,-0.69035 0.55961,-1.24999 1.24998,-1.24999 h 22.52204 c 0.69035,0 1.24998,0.55964 1.24998,1.24999 v 17.49975 c 0,0.69035 -0.55963,1.24999 -1.24998,1.24999 h -22.52204 c -0.69037,0 -1.24998,-0.55964 -1.24998,-1.24999 z" style="fill:none;stroke-width:.0520829" transform="translate(-253.215 -405.577)"/>
 <path style="color:#000;clip-rule:evenodd;fill:#000;fill-rule:evenodd;stroke-width:.0626411;stroke-miterlimit:3.86369;-inkscape-stroke:none" d="M 1.515625 2.359375 L 1.515625 4.4824219 L 9.2148438 4.4824219 L 9.2148438 7 L 9.7363281 7 L 9.7363281 4 L 2.0371094 4 L 2.0371094 2.8417969 L 21.701172 2.8417969 L 21.701172 3.8886719 L 22.845703 7.6542969 L 22.845703 12.492188 L 22 12.214844 L 22 12.726562 L 23.365234 13.173828 L 23.365234 7.5859375 L 22.220703 3.8222656 L 22.220703 2.359375 L 21.960938 2.359375 L 1.515625 2.359375 z"/>
</svg>

<svg width="25" height="20" version="1.0" xmlns="http://www.w3.org/2000/svg">
 <rect style="fill:#fff;fill-rule:evenodd;stroke:#000" width="24" height="19" x=".5" y=".5" rx="1.5" ry="1.5"/>
 <path d="M253.215 406.827c0-.69.56-1.25 1.25-1.25h22.522c.69 0 1.25.56 1.25 1.25v17.5c0 .69-.56 1.25-1.25 1.25h-22.522c-.69 0-1.25-.56-1.25-1.25z" style="fill:none;stroke-width:.0520829" transform="translate(-253.215 -405.577)"/>
 <path style="color:#000;clip-rule:evenodd;fill:#000;fill-rule:evenodd;stroke-width:.0626411;stroke-miterlimit:3.86369;-inkscape-stroke:none" d="M1.516 2.36v2.122h7.699V7h.521V4H2.037V2.842h19.664v1.047l1.145 3.765v4.838L22 12.215v.512l1.365.447V7.586l-1.144-3.764V2.36H1.516z"/>
</svg>
